X:1
T:Beethoven, LM
T:Beethoven, LM
T:Arranger unknown, before 1895
T:Public Domain Courtesy of the Cyber Hymnal™
C:Arranger unknown, before 1895
Z:Public Domain
Z:Courtesy of the Cyber Hymnal™
%%score ( 1 2 ) ( 3 4 )
L:1/8
Q:1/4=115
M:3/4
K:G
V:1 treble 
V:2 treble 
V:3 bass 
V:4 bass 
V:1
 D2 | ([DB]2 [CA]2) [DG]2 | ([DF]2 [CE]2) E2 | ([Ec]2 [DB]2) [EA]2 | (G2 F2) D2 | (d2 cB) (AG) | %6
 (e2 dc) (BA) | (G2 B2) [DA]2 | [DG]4 [B,D]2 | ([DB]2 [CA]2) [DG]2 | ([DF]2 [CE]2) E2 | %11
 ([Ec]2 [DB]2) [EA]2 | (G2 F2) D2 | ([DG]2 [FA]2) [GB]2 | ([=Fd]2 [Ec]2) [EB]2 | (A2 E2) [DF]2 | %16
 [DG]4 |] %17
V:2
 D2 | x6 | x4 E2 | x6 | D4 D2 | D4 D2 | E4 E2 | D4 x2 | x6 | x6 | x4 E2 | x6 | D4 D2 | x6 | x6 | %15
 E4 x2 | x4 |] %17
V:3
 D,2 | ([G,,G,]2 [A,,F,]2) [B,,G,]2 | [C,G,]4 [B,,^G,]2 | ([A,,A,]2 [B,,^G,]2) [C,A,]2 | %4
 (B,2 A,2) [D,C]2 | (B,2 A,G,) (CB,) | [C,C]4 (DC) | (B,2 D2) [D,C]2 | [G,,G,B,]4 [G,,G,]2 | %9
 ([G,,G,]2 [A,,F,]2) [B,,G,]2 | [C,G,]4 [B,,G,]2 | ([A,,A,]2 [B,,^G,]2) [C,A,]2 | %12
 (B,2 A,2) [D,C]2 | (B,2 C2) [G,,D]2 | ([^G,,B,]2 [A,,C]2) [B,,D]2 | (C2 A,2) [D,C]2 | [G,,B,]4 |] %17
V:4
 D,2 | x6 | x6 | x6 | D,4 x2 | G,,4 G,2 | x4 C,2 | D,4 x2 | x6 | x6 | x6 | x6 | D,4 x2 | G,4 x2 | %14
 x6 | C,4 x2 | x4 |] %17

